X: 34067
T: Reel De Minuit
R: reel
M: 4/4
K: Dmajor
AG|:"D"F2D2 DFAF|"A7"G2E2 E3F|"Em"GFGA BGBd|"A7"ceAc dBAG|
"D"F2D2 DFAF|"A7"G2E2 E3F|"Em"GFGA "A7"BGEG|1 "D"F2D2 D2AG:|2 "D"F2D2 D2de||
|:"D"f2df "A"edce|"D"dfec dcBA|"G"GBef gfgf|"A7"edcB Acde|
"D"f2df "A"edce|"D"dfed dcBA|"G"GABc "A7"dBAG|1 "D"F2D2 D2de:|2 "D"F2D2 D2AG||

